assets/img/summary_prio_icon.svg

<svg width="60" height="60" viewBox="0 0 60 60" fill="none" xmlns="http://www.w3.org/2000/svg">
<circle cx="30" cy="30" r="30" fill="#FF3D00"/>
<g clip-path="url(#clip0_406799_6098)">
<path d="M44.8709 41.1626C44.4699 41.1633 44.0792 41.0337 43.7563 40.7929L29.6511 30.263L15.5458 40.7929C15.3478 40.941 15.1229 41.0482 14.8839 41.1084C14.645 41.1685 14.3966 41.1805 14.1531 41.1435C13.9096 41.1066 13.6757 41.0214 13.4647 40.893C13.2536 40.7645 13.0697 40.5953 12.9233 40.3949C12.777 40.1945 12.6711 39.9669 12.6116 39.7251C12.5522 39.4832 12.5404 39.2319 12.5769 38.9855C12.6507 38.4878 12.9168 38.0402 13.3167 37.7411L28.5365 26.3677C28.8591 26.126 29.2498 25.9956 29.6511 25.9956C30.0524 25.9956 30.4431 26.126 30.7657 26.3677L45.9855 37.7411C46.3033 37.9781 46.5389 38.3106 46.6588 38.6912C46.7788 39.0718 46.7768 39.481 46.6532 39.8604C46.5296 40.2398 46.2907 40.57 45.9706 40.8039C45.6506 41.0377 45.2657 41.1633 44.8709 41.1626Z" fill="white"/>
<path d="M44.8708 31.2109C44.4697 31.2116 44.0791 31.082 43.7562 30.8413L29.651 20.3114L15.5457 30.8413C15.1458 31.1404 14.6448 31.2665 14.153 31.1919C13.6612 31.1172 13.2188 30.8479 12.9232 30.4432C12.6276 30.0385 12.503 29.5315 12.5768 29.0339C12.6506 28.5362 12.9167 28.0885 13.3166 27.7894L28.5364 16.416C28.859 16.1744 29.2497 16.0439 29.651 16.0439C30.0523 16.0439 30.443 16.1744 30.7655 16.416L45.9854 27.7894C46.3031 28.0264 46.5388 28.359 46.6587 28.7396C46.7786 29.1202 46.7767 29.5294 46.6531 29.9088C46.5295 30.2882 46.2906 30.6184 45.9705 30.8522C45.6505 31.0861 45.2656 31.2116 44.8708 31.2109Z" fill="white"/>
</g>
<defs>
<clipPath id="clip0_406799_6098">
<rect width="34.186" height="25.1163" fill="white" transform="translate(12.5581 16.0464)"/>
</clipPath>
</defs>
</svg>

<?xml version="1.0" encoding="UTF-8"?>
<svg id="Ebene_1" xmlns="http://www.w3.org/2000/svg" xmlns:xlink="http://www.w3.org/1999/xlink" version="1.1" viewBox="0 0 60 60">
  <!-- Generator: Adobe Illustrator 30.1.0, SVG Export Plug-In . SVG Version: 2.1.1 Build 136)  -->
  <defs>
    <style>
      .st0 {
        fill: none;
      }

      .st1 {
        fill: #fff;
      }

      .st2 {
        fill: #f175fa;
      }

      .st3 {
        clip-path: url(#clippath);
      }
    </style>
    <clipPath id="clippath">
      <rect class="st0" x="12.56" y="16.05" width="34.19" height="25.12"/>
    </clipPath>
  </defs>
  <circle class="st2" cx="30" cy="30" r="30"/>
  <g class="st3">
    <g>
      <path class="st1" d="M44.87,41.16c-.4,0-.79-.13-1.11-.37l-14.11-10.53-14.11,10.53c-.2.15-.42.26-.66.32-.24.06-.49.07-.73.04-.24-.04-.48-.12-.69-.25-.21-.13-.39-.3-.54-.5-.15-.2-.25-.43-.31-.67-.06-.24-.07-.49-.03-.74.07-.5.34-.95.74-1.24l15.22-11.37c.32-.24.71-.37,1.11-.37s.79.13,1.11.37l15.22,11.37c.32.24.55.57.67.95.12.38.12.79,0,1.17-.12.38-.36.71-.68.94-.32.23-.7.36-1.1.36Z"/>
      <path class="st1" d="M44.87,31.21c-.4,0-.79-.13-1.11-.37l-14.11-10.53-14.11,10.53c-.4.3-.9.43-1.39.35-.49-.07-.93-.34-1.23-.75-.3-.4-.42-.91-.35-1.41.07-.5.34-.95.74-1.24l15.22-11.37c.32-.24.71-.37,1.11-.37s.79.13,1.11.37l15.22,11.37c.32.24.55.57.67.95s.12.79,0,1.17-.36.71-.68.94c-.32.23-.7.36-1.1.36Z"/>
    </g>
  </g>
</svg>
